badges/booster.svg

<svg xmlns="http://www.w3.org/2000/svg" width="24" height="24" fill="none" viewBox="0 0 24 24"><path fill="#FF4DA5" d="M12.4801 1.42383C12.202 1.19206 11.798 1.19206 11.5199 1.42383L5.51986 6.42383C5.34887 6.56633 5.25 6.77742 5.25 7V17C5.25 17.2226 5.34887 17.4337 5.51986 17.5762L11.5199 22.5762C11.798 22.8079 12.202 22.8079 12.4801 22.5762L18.4801 17.5762C18.6511 17.4337 18.75 17.2226 18.75 17V7C18.75 6.77742 18.6511 6.56633 18.4801 6.42383L12.4801 1.42383Z"/><path fill="#ECEFF1" fill-rule="evenodd" d="M5.25 7V7.46353L5.66459 7.67082L8.25 8.96353V11.9997V12.0003V15.0365L5.66459 16.3292L5.25 16.5365V17C5.25 17.2226 5.34887 17.4337 5.51986 17.5762L5.89668 17.8902L6.33541 17.6708L9.05019 16.3134L11.25 18.3299V21.5V22.3513L11.5199 22.5762C11.798 22.8079 12.202 22.8079 12.4801 22.5762L12.75 22.3513V21.5V18.3299L14.9498 16.3134L17.6646 17.6708L18.1033 17.8902L18.4801 17.5762C18.6511 17.4337 18.75 17.2226 18.75 17V16.5365L18.3354 16.3292L15.75 15.0365V9.5V8.96353L18.3354 7.67082L18.75 7.46353V7C18.75 6.77742 18.6511 6.56633 18.4801 6.42383L18.1033 6.10982L17.6646 6.32918L14.9498 7.68657L12.75 5.67007V2.5V1.64872L12.4801 1.42383C12.202 1.19206 11.798 1.19206 11.5199 1.42383L11.25 1.64872V2.5V5.67007L9.05019 7.68657L6.33541 6.32918L5.89668 6.10982L5.51986 6.42383C5.34887 6.56633 5.25 6.77742 5.25 7ZM14.25 9.18934V9.07993L13.5878 8.47289L9.75 12.3107V13.6893L14.25 9.18934ZM10.2147 15.346L14.25 11.3107V14.9201L12 16.9826L10.2147 15.346ZM9.75 10.1893L12.481 7.45834L12 7.01743L9.75 9.07993V10.1893Z" clip-rule="evenodd"/><path fill="#FF4DA5" fill-rule="evenodd" d="M20 1.25C20.4142 1.25 20.75 1.58579 20.75 2V6C20.75 6.41421 20.4142 6.75 20 6.75 19.5858 6.75 19.25 6.41421 19.25 6V2C19.25 1.58579 19.5858 1.25 20 1.25zM4 17.25C4.41421 17.25 4.75 17.5858 4.75 18V22C4.75 22.4142 4.41421 22.75 4 22.75 3.58579 22.75 3.25 22.4142 3.25 22V18C3.25 17.5858 3.58579 17.25 4 17.25z" clip-rule="evenodd"/><path fill="#FF4DA5" fill-rule="evenodd" d="M17.25 4C17.25 3.58579 17.5858 3.25 18 3.25H22C22.4142 3.25 22.75 3.58579 22.75 4 22.75 4.41421 22.4142 4.75 22 4.75H18C17.5858 4.75 17.25 4.41421 17.25 4zM1.25 20C1.25 19.5858 1.58579 19.25 2 19.25H6C6.41421 19.25 6.75 19.5858 6.75 20 6.75 20.4142 6.41421 20.75 6 20.75H2C1.58579 20.75 1.25 20.4142 1.25 20z" clip-rule="evenodd"/><path fill="#E54594" fill-rule="evenodd" d="M12 1.25V22.75C11.8295 22.75 11.6589 22.6921 11.5199 22.5762L5.51986 17.5762C5.34887 17.4337 5.25 17.2226 5.25 17V7C5.25 6.77742 5.34887 6.56633 5.51986 6.42383L11.5199 1.42383C11.6589 1.30794 11.8295 1.25 12 1.25Z" clip-rule="evenodd"/><path fill="#D4D6D8" fill-rule="evenodd" d="M5.66459 7.67082L5.25 7.46353V7C5.25 6.77742 5.34887 6.56633 5.51986 6.42383L5.89668 6.10982L6.33541 6.32918L9.05019 7.68657L11.25 5.67007V2.5V1.64872L11.5199 1.42383C11.6589 1.30794 11.8295 1.25 12 1.25V7.01743L9.75 9.07993V10.1893L12 7.93934V10.0607L9.75 12.3107V13.6893L12 11.4393V13.5607L10.2147 15.346L12 16.9826V22.75C11.8295 22.75 11.6589 22.6921 11.5199 22.5762L11.25 22.3513V21.5V18.3299L9.05019 16.3134L6.33541 17.6708L5.89668 17.8902L5.51986 17.5762C5.34887 17.4337 5.25 17.2226 5.25 17V16.5365L5.66459 16.3292L8.25 15.0365V12.0003V11.9997V8.96353L5.66459 7.67082Z" clip-rule="evenodd"/><path fill="#E54594" fill-rule="evenodd" d="M20 1.25C19.5858 1.25 19.25 1.58579 19.25 2V6C19.25 6.41421 19.5858 6.75 20 6.75V1.25zM4 17.25C3.58579 17.25 3.25 17.5858 3.25 18V22C3.25 22.4142 3.58579 22.75 4 22.75V17.25z" clip-rule="evenodd"/><path fill="#E54594" fill-rule="evenodd" d="M20 3.25V4.75H18C17.5858 4.75 17.25 4.41421 17.25 4 17.25 3.58579 17.5858 3.25 18 3.25H20zM4 19.25V20.75H2C1.58579 20.75 1.25 20.4142 1.25 20 1.25 19.5858 1.58579 19.25 2 19.25H4z" clip-rule="evenodd"/></svg>

<svg xmlns="http://www.w3.org/2000/svg" width="24" height="24" fill="none"><path fill="#3a6" d="M12.48 1.424a.75.75 0 00-.96 0l-6 5A.75.75 0 005.25 7v10a.75.75 0 00.27.576l6 5a.75.75 0 00.96 0l6-5a.75.75 0 00.27-.576V7a.75.75 0 00-.27-.576l-6-5z"/><path fill="#ECEFF1" fill-rule="evenodd" d="M5.25 7v.464l.415.207L8.25 8.964v6.073l-2.585 1.292-.415.207V17a.75.75 0 00.27.576l.377.314.438-.22 2.715-1.357 2.2 2.017v4.021l.27.225a.75.75 0 00.96 0l.27-.225V18.33l2.2-2.017 2.715 1.358.438.22.377-.315a.75.75 0 00.27-.576v-.463l-.415-.208-2.585-1.293V8.965l2.585-1.293.415-.207V7a.75.75 0 00-.27-.576l-.377-.314-.438.22-2.715 1.357-2.2-2.017V1.65l-.27-.225a.75.75 0 00-.96 0l-.27.225V5.67l-2.2 2.017-2.715-1.358-.438-.22-.377.315A.75.75 0 005.25 7zm9 2.19v-.11l-.662-.607L9.75 12.31v1.378l4.5-4.5zm-4.035 6.156l4.035-4.035v3.61L12 16.982l-1.785-1.637zm-.465-5.157l2.731-2.73L12 7.016 9.75 9.08v1.11z" clip-rule="evenodd"/><path fill="#3a6" fill-rule="evenodd" d="M20 1.25a.75.75 0 01.75.75v4a.75.75 0 01-1.5 0V2a.75.75 0 01.75-.75zm-16 16a.75.75 0 01.75.75v4a.75.75 0 01-1.5 0v-4a.75.75 0 01.75-.75z" clip-rule="evenodd"/><path fill="#3a6" fill-rule="evenodd" d="M17.25 4a.75.75 0 01.75-.75h4a.75.75 0 010 1.5h-4a.75.75 0 01-.75-.75zm-16 16a.75.75 0 01.75-.75h4a.75.75 0 010 1.5H2a.75.75 0 01-.75-.75z" clip-rule="evenodd"/><path fill="#295" fill-rule="evenodd" d="M12 1.25v21.5a.748.748 0 01-.48-.174l-6-5A.75.75 0 015.25 17V7a.75.75 0 01.27-.576l6-5A.748.748 0 0112 1.25z" clip-rule="evenodd"/><path fill="#D4D6D8" fill-rule="evenodd" d="M5.665 7.67l-.415-.206V7a.75.75 0 01.27-.576l.377-.314.438.22L9.05 7.686l2.2-2.017V1.65l.27-.225A.748.748 0 0112 1.25v5.767L9.75 9.08v1.11L12 7.94v2.12l-2.25 2.25v1.38L12 11.44v2.12l-1.785 1.786L12 16.983v5.767a.748.748 0 01-.48-.174l-.27-.225V18.33l-2.2-2.017-2.715 1.358-.438.22-.377-.315A.75.75 0 015.25 17v-.463l.415-.208 2.585-1.293V8.965L5.665 7.67z" clip-rule="evenodd"/><path fill="#295" fill-rule="evenodd" d="M20 1.25a.75.75 0 00-.75.75v4c0 .414.336.75.75.75v-5.5zm-16 16a.75.75 0 00-.75.75v4c0 .414.336.75.75.75v-5.5z" clip-rule="evenodd"/><path fill="#295" fill-rule="evenodd" d="M20 3.25v1.5h-2a.75.75 0 010-1.5h2zm-16 16v1.5H2a.75.75 0 010-1.5h2z" clip-rule="evenodd"/></svg>
